X:35
T:The Chicago reel
R:Reel
O:Ireland
S:Felicity P
Z:Transcription:?, Chords:Mike Long
M:C|
L:1/8
K:G
AB|\
"Am"cded cAGE|"G"G2GE GAcd|"C"ecgc acgc|\
"Am"eaag "G"eged|"C"cded cAGE|
"G"G2GE GAcd|"Am"eaag "G"eged|"Em"cABG "Am"A2:|\
|:AB|\
"Am"cdef "G"g2ga|"G"gedc BGGB|
"C"cdef "G"g2ed|"Am"eaag aged|"C"cdef "G"g2ge|\
"Am"a2af "G"g2ge|"F"=f2fd "C"eged|"G"cABG "Am"A2:|
